!!!ONB: MCCC : IFS0515_01 : Extracted Monophonic Melody
!!!COM: Schubert, Franz
!!!OPR: 6 Moments musicaux
!!!OMV: 1
!!!SCT: D.780 (Op.94)
!!!ODT: 1823///
**kern
*staff1
=1
*clefG2
*k[f#]
*G:
*M3/4
8.g
32g
32a
12g
12e
12c
8.g
16ee
=2
2ee
4cc
=3
8.g
32g[
32g]
12e
12c
12G
12c
12e
12g
=4
8g
8f
8e
8d
4e
=5
8g
8f
8d#
8c##
8d#
8f
=6
8f
8g
8g
8a
8a
8b-
=7
8b-
8b
4.b
8ff
=8
2.ee
=9
8.g
32g
32a
12g
12e
12c
8.g
16ee
=10
2ee
4cc
=11
8.g
32g[
32g]
12e
12c
12G
12c
12e
12g
=12
8g
8f
8e
8d
4e
=13
8g
8f
8d#
8c##
8d#
8f
=14
8f
8g
8g
8a
8a
8b-
=15
8b-
8b
4.b
8ff
=16
2.ee
=17
8.ee
32ee
32ff
12ee
12cc
12a
4r
=18
8cc
8b
8b
8a
4b
=19
8cc
8b
8b
8cc
8b
8ff
=20
8.ee
32ee[
32ee]
12cc
12b
12a
4b
=21
8.b
32b
32cc
12b
12g
12e
8gg
8ee
=22
8.b
32b
32cc
12b
12g
12e
8gg
8ee
=23
8bb
16b
32r
32aa
12gg
12ff#
12ee
8bb
16b
32r
32aa
=24
12gg
12ff#
12ee
8bb
8b
8bbb
8bb
=25
2.r
=26
8gg
8ee
8gg
8ee
8gg
8ee
=27
8gg
8ee
8gg
8ee
8gg
8ee
=28
8gg
8g
8gg
8g
8gg
8g
=29
8gg
8g
8gg
8g
8gg
8g
=30
8.g
32g
32a
12g
12e
12c
8.g
16ee
=31
2ee
4cc
=32
8.gg
32gg[
32gg]
12ee
12cc
12g
12cc
12ee
12gg
=33
8gg
8ff
8ee
8dd
4ee
=34
8g
16a
16b
8cc
8g
8cc
8bb-
=35
8bb-
8ddd#
8ddd#
8ddd
8ddd
8ggg
=36
8ggg
8fff
4.fff
8bb
=37
2.ccc
=38
2.r
=39
8cc
8b
8b
8a
4b
=40
8cc
8b
8b
8cc
8b
8ff
=41
8.ee
32ee[
32ee]
12cc
12b
12a
4b
=42
8.b
32b
32cc
12b
12g
12e
8gg
8ee
=43
8.b
32b
32cc
12b
12g
12e
8gg
8ee
=44
8bb
16b
32r
32aa
12gg
12ff#
12ee
8bb
16b
32r
32aa
=45
12gg
12ff#
12ee
8bb
8b
8bbb
8bb
=46
2.r
=47
8gg
8ee
8gg
8ee
8gg
8ee
=48
8gg
8ee
8gg
8ee
8gg
8ee
=49
8gg
8g
8gg
8g
8gg
8g
=50
8gg
8g
8gg
8g
8gg
8g
=51
8.g
32g
32a
12g
12e
12c
8.g
16ee
=52
2ee
4cc
=53
8.gg
32gg[
32gg]
12ee
12cc
12g
12cc
12ee
12gg
=54
8gg
8ff
8ee
8dd
4ee
=55
8g
16a
16b
8cc
8g
8cc
8bb-
=56
8bb-
8ddd#
8ddd#
8ddd
8ddd
8ggg
=57
8ggg
8fff
4.fff
8bb
=58
2.ccc
=59
12g
12d
12B
12g
12d
12B
12f#
12d
12A
=60
12a
12d
12c
12a
12d
12c
12g
12d
12B
=61
12g
12d
12B
8a
8b
8.cc
16b
=62
4b
8a
8g
4a
=63
2.dd
=64
2.dd
=65
4r
8ee
8ff#
8.gg
16b
=66
4dd
8.cc
16b
4b
=67
12g
12d
12B
12g
12d
12B
12f#
12d
12A
=68
12a
12d
12c
12a
12d
12c
12g
12d
12B
=69
12g
12d
12B
8a
8b
8.cc
16b
=70
4b
8a
8g
4a
=71
2.dd
=72
2.dd
=73
4r
8ee
8ff#
8.gg
16b
=74
4dd
8.cc
16b
4b
=75
4a
8.g
16f#
4f#
=76
8.dd
16ee
4dd
4ee
=77
4b
8.a
16g
4g
=78
8.ee
16ff#
4ee
4ff#
=79
4dd
8cc#
8b
4a
=80
8g
8f#
4b
8a
8g
=81
8f#
8e
2d
=82
4a
8.g
16f#
4f#
=83
4a
8.g
16f#
4f#
=84
4cc
8.b
16a
4a
=85
4ee
8.dd
16cc
4cc
=86
16A
16d
8cc
8.b
16a
4a[
=87
2.a]
=88
12g
12d
12B-
12g
12d
12B-
12f#
12d
12A
=89
12a
12d
12c
12a
12d
12c
12g
12d
12B-
=90
12g
12d
12B-
8a
8b-
8.cc
16b-
=91
4b-
8a
8g
4a
=92
2.dd
=93
2.dd
=94
4r
8ee
8ff#
8.gg
16b
=95
4dd
8.cc
16b
4b
=96
4a
8.g
16f#
4f#
=97
8.dd
16ee
4dd
4ee
=98
4b
8.a
16g
4g
=99
8.ee
16ff#
4ee
4ff#
=100
4dd
8cc#
8b
4a
=101
8g
8f#
4b
8a
8g
=102
8f#
8e
2d
=103
4a
8.g
16f#
4f#
=104
4a
8.g
16f#
4f#
=105
4cc
8.b
16a
4a
=106
4ee
8.dd
16cc
4cc
=107
16A
16d
8cc
8.b
16a
4a[
=108
2.a]
=109
12g
12d
12B-
12g
12d
12B-
12f#
12d
12A
=110
12a
12d
12c
12a
12d
12c
12g
12d
12B-
=111
12g
12d
12B-
8a
8b-
8.cc
16b-
=112
4b-
8a
8g
4a
=113
2.dd
=114
2.dd
=115
4r
8ee
8ff#
8.gg
16b
=116
4dd
8.cc
16b
4b
=117
4cc
8.b
16a
4a
=118
4b
8.a
16g
4g
=119
4a
8.g
16f#
4f#
=120
4g
8.d
16B
4B
=121
4f
8.e
16d
4d
=122
4a
8.g
16f
4f
=123
4.a
8g#
8g
8a
=124
4a
2g
=125
8.g
32g
32a
12g
12e
12c
8.g
16ee
=126
2ee
4cc
=127
8.g
32g[
32g]
12e
12c
12G
12c
12e
12g
=128
8g
8f
8e
8d
4e
=129
8g
8f
8d#
8c##
8d#
8f
=130
8f
8g
8g
8a
8a
8b-
=131
8b-
8b
4.b
8ff
=132
2.ee
=133
8.ee
32ee
32ff
12ee
12cc
12a
4r
=134
8cc
8b
8b
8a
4b
=135
8cc
8b
8b
8cc
8b
8ff
=136
8.ee
32ee[
32ee]
12cc
12b
12a
4b
=137
8.b
32b
32cc
12b
12g
12e
8gg
8ee
=138
8.b
32b
32cc
12b
12g
12e
8gg
8ee
=139
8bb
16b
32r
32aa
12gg
12ff#
12ee
8bb
16b
32r
32aa
=140
12gg
12ff#
12ee
8bb
8b
8bbb
8bb
=141
2.r
=142
8gg
8ee
8gg
8ee
8gg
8ee
=143
8gg
8ee
8gg
8ee
8gg
8ee
=144
8gg
8g
8gg
8g
8gg
8g
=145
8gg
8g
8gg
8g
8gg
8g
=146
8.g
32g
32a
12g
12e
12c
8.g
16ee
=147
2ee
4cc
=148
8.gg
32gg[
32gg]
12ee
12cc
12g
12cc
12ee
12gg
=149
8gg
8ff
8ee
8dd
4ee
=150
8g
16a
16b
8cc
8g
8cc
8bb-
=151
8bb-
8ddd#
8ddd#
8ddd
8ddd
8ggg
=152
8ggg
8fff
4.fff
8bb
=153
2.ccc
==
*-
